src/static/card-question.svg

<svg
  width="18"
  height="18"
  viewBox="0 0 18 18"
  fill="none"
  xmlns="http://www.w3.org/2000/svg"
>
  <path
    fill-rule="evenodd"
    clip-rule="evenodd"
    d="M9 0C4.02944 0 0 4.02944 0 9C0 13.9706 4.02944 18 9 18C13.9706 18 18 13.9706 18 9C18 4.02944 13.9706 0 9 0ZM8.47225 11.3832C8.52295 11.4339 8.59056 11.4592 8.67506 11.4592H9.29619C9.4652 11.4592 9.57084 11.3578 9.61309 11.155C9.61309 11.0367 9.62154 10.8592 9.63844 10.6226C9.66379 10.3268 9.75675 10.0606 9.91732 9.82401C10.0779 9.57894 10.3187 9.28316 10.6399 8.93668C11.0286 8.5226 11.3201 8.15922 11.5145 7.84654C11.7089 7.53387 11.806 7.16204 11.806 6.73105C11.806 6.35077 11.7046 5.99161 11.5018 5.65358C11.299 5.30711 10.9863 5.02823 10.5638 4.81696C10.1413 4.6057 9.62154 4.50006 9.00464 4.50006C8.42154 4.50006 7.90182 4.61837 7.44548 4.85499C6.9976 5.08316 6.64689 5.39584 6.39337 5.79302C6.1483 6.18175 6.01732 6.60851 6.00041 7.0733C6.00041 7.15781 6.02577 7.22542 6.07647 7.27612C6.13563 7.32682 6.20323 7.35218 6.27929 7.35218H6.83703C7.02295 7.35218 7.13281 7.25922 7.16661 7.0733C7.25957 6.54091 7.46239 6.15218 7.77506 5.90711C8.09619 5.65358 8.49337 5.52682 8.96661 5.52682C9.40605 5.52682 9.79056 5.64091 10.1201 5.86908C10.4497 6.09725 10.6145 6.4057 10.6145 6.79443C10.6145 6.87049 10.6103 6.92542 10.6018 6.95922C10.5765 7.19584 10.4877 7.41556 10.3356 7.61837C10.192 7.82119 9.96802 8.07894 9.66379 8.39161C9.26661 8.79725 8.95816 9.16485 8.73844 9.49443C8.52717 9.82401 8.41309 10.2127 8.39619 10.6606V11.1803C8.39619 11.2649 8.42154 11.3325 8.47225 11.3832ZM8.34548 13.424C8.40464 13.4747 8.47647 13.5001 8.56098 13.5001H9.34689C9.4314 13.5001 9.50323 13.4747 9.56239 13.424C9.62154 13.3649 9.65112 13.293 9.65112 13.2085V12.4733C9.65112 12.3888 9.62154 12.317 9.56239 12.2578C9.50323 12.1987 9.4314 12.1691 9.34689 12.1691H8.56098C8.47647 12.1691 8.40464 12.1987 8.34548 12.2578C8.29478 12.317 8.26943 12.3888 8.26943 12.4733V13.2085C8.26943 13.293 8.29478 13.3649 8.34548 13.424Z"
    fill="currentColor"
  />
</svg>

<svg xmlns="http://www.w3.org/2000/svg" width="18" height="18" fill="none"><path fill="currentColor" fill-rule="evenodd" d="M9 0a9 9 0 1 0 0 18A9 9 0 0 0 9 0Zm-.528 11.383c.051.05.119.076.203.076h.621c.17 0 .275-.101.317-.304 0-.118.009-.296.025-.532.026-.296.119-.562.28-.799.16-.245.4-.54.722-.887.389-.414.68-.778.874-1.09.195-.313.292-.685.292-1.116 0-.38-.101-.74-.304-1.077-.203-.347-.516-.626-.938-.837-.423-.211-.942-.317-1.56-.317-.582 0-1.102.118-1.559.355a2.64 2.64 0 0 0-1.052.938A2.532 2.532 0 0 0 6 7.073c0 .085.026.152.076.203.06.05.127.076.203.076h.558c.186 0 .296-.093.33-.279.093-.532.295-.92.608-1.166.321-.253.718-.38 1.192-.38.439 0 .824.114 1.153.342.33.228.495.537.495.925a.752.752 0 0 1-.013.165 1.317 1.317 0 0 1-.266.66c-.144.202-.368.46-.672.773a7.888 7.888 0 0 0-.926 1.102c-.21.33-.325.719-.342 1.167v.52c0 .084.026.152.076.202Zm-.127 2.041a.32.32 0 0 0 .216.076h.786a.32.32 0 0 0 .215-.076.293.293 0 0 0 .09-.215v-.736a.294.294 0 0 0-.09-.215.294.294 0 0 0-.215-.089H8.56a.294.294 0 0 0-.216.089.32.32 0 0 0-.076.215v.736a.32.32 0 0 0 .076.215Z" clip-rule="evenodd"/></svg>
